packages/ui-icons/src/Basic/16/Balance_16.svg

<svg xmlns="http://www.w3.org/2000/svg" viewBox="0 0 20 20"><path d="M10 2a8 8 0 1 0 8 8 8 8 0 0 0-8-8Zm0 15a7 7 0 1 1 7-7 7 7 0 0 1-7 7Zm1-11H8v4H7v1h1v1H7v1h1v2h1v-2h3v-1H9v-1h2a2.5 2.5 0 0 0 0-5Zm0 4H9V7h2a1.5 1.5 0 0 1 0 3Z"/></svg>

<svg id="ready" xmlns="http://www.w3.org/2000/svg" viewBox="0 0 20 20"><title>Megaicons_work_16_1.8_cp</title><path d="M10,2a8,8,0,1,0,8,8A8,8,0,0,0,10,2Zm0,15a7,7,0,1,1,7-7A7,7,0,0,1,10,17ZM11,6H8v4H7v1H8v1H7v1H8v2H9V13h3V12H9V11h2a2.5,2.5,0,0,0,0-5Zm0,4H9V7h2a1.5,1.5,0,0,1,0,3Z"/></svg>
